X:1990
T:Romanze
C:Felix Mendelssohn-Bartholdy
Z:Transcribed by Frank Nordberg - http://www.musicaviva.com
F:http://abc.musicaviva.com/tunes/bartholdy-felix-mendelssohn/mendelssohn-romanze01.abc
V:1 Program 1 0 %Piano
V:2 Program 1 0 bass %Piano
M:3/4
L:1/8
K:Gm
V:1
d>AA4|B>^FF4|G^FGABc|d2-dc/B/ A z|
V:2
z2z2 [^F,CD] z|[G,B,D] z z2 [D,A,C] z|[E,2G,2B,2] z2 [E,2G,2]|D,G,B,D^F,A,|
V:1
d>AA4|B>^FF4|G^FGABc|d2-dc/A/ G z|
V:2
z2z2 [^F,CD] z|[G,B,D] z z2 [D,A,C] z|[E,2G,2B,2] z2 [E,2G,2]|D,B,D[^F,A,][G,B,] z|
V:1
BABcde|f>e d>c B z|z B e>d c>B|B2A2z2|
V:2
G,^F,G,A,B,G,|_A,B,F,A,D,F,|[E,2G,2] z2 [E,G,] z|DF,CEDC|
V:1
BABcde|f>e d>c B z|z B e>d c>B|B2A2z2|
V:2
[B,2D2] z2 B,G,|_A,B,F,B,D,A,|[G,2E,2] z2 [E,G,] z|z2 [E,2G,2C2][E,2G,2C2]|
V:1
z A d>c B>A|A2G2 z2|d>AA4|B>^FF4|
V:2
[D,2-G,2C2-][D,4^F,4C4]|z2[G,2B,2][G,2B,2D2]|z2z2 [^F,CD] z|[G,B,D] z z2 [D,A,C] z|
V:1
G^FGABc|d2-dc/B/ A z|d>AA4|B>^FF4|
V:2
[E,2G,2B,2] z2 [E,2G,2]|D,G,B,D^F,A,|z2z2 [^F,CD] z|[G,B,D] z z2 [D,A,C] z|
V:1
G^FGABc|d2-dc/A/ G z|[B,2G2][B,2G2][B,2G2]|[B,6G6]|]
V:2
[E,2G,2B,2] z2 [E,2G,2]|D,B,D[^F,A,][G,B,] z|G,2D,2B,,2|G,,6|]
W:
W:
W:  From Musica Viva - http://www.musicaviva.com
W:  the Internet center for free sheet music downloads.


